img/nf-diet.svg

<svg width="340" height="207" viewBox="0 0 340 207" fill="none" xmlns="http://www.w3.org/2000/svg">
<g clip-path="url(#clip0)">
<path d="M4.93269 206.506C1.83217 204.249 0.458079 200.194 0.634245 196.386C0.81041 192.577 2.36067 188.945 4.22803 185.595C11.5918 172.159 23.4653 161.897 33.5068 150.295C43.5482 138.694 52.2156 124.306 50.771 109.037C50.4892 105.933 49.256 102.301 46.226 101.561C44.0415 100.996 41.7161 102.301 40.4477 104.135C39.1793 105.969 38.7213 108.261 38.4747 110.518C37.6291 117.676 38.2985 125.258 41.8923 131.535C45.4508 137.812 52.3213 142.502 59.5088 142.114C64.4767 141.867 69.4798 139.328 73.4259 136.437C77.7949 133.228 82.1638 130.583 87.2726 128.467C97.8778 124.094 109.434 122.049 120.885 122.578C101.014 105.898 91.9234 77.3694 98.4767 52.2614C105.03 27.1534 126.839 6.70024 152.313 1.8338C177.787 -3.03264 205.621 7.93448 220.912 28.8813C230.143 41.5059 234.899 57.3394 234.406 72.9614C233.49 101.137 214.5 127.938 188.216 138.094C160.311 148.885 124.796 143.137 105.488 119.193C87.942 97.4347 87.7306 67.2839 101.225 43.4806C110.033 27.9645 124.197 15.3399 141.074 9.23926C168.767 -0.740472 201.604 8.07553 221.088 29.9392C225.175 34.5236 228.698 39.6369 231.411 45.1733C237.577 57.551 239.832 71.7624 238.247 85.4449C237.436 92.3919 235.675 99.1979 232.891 105.616C230.073 112.175 224.929 117.324 220.031 122.507C202.837 140.704 180.746 152.27 154.85 149.202C128.672 146.099 112.218 129.067 103.762 104.875C99.7451 93.344 97.455 81.0721 98.2653 68.8708C99.0757 56.6694 103.092 44.5386 110.703 34.982C124.514 17.5968 146.711 9.76821 168.45 11.2846C199.103 13.4357 224.048 33.5715 234.019 62.488C239.339 77.8984 241.523 99.2684 234.195 114.397C230.531 121.908 225.457 128.925 218.481 133.58C211.54 138.2 202.555 140.21 194.593 137.636C182.261 133.651 179.337 121.203 179.196 109.636C179.125 104.276 178.738 97.2936 181.134 92.4272C184.023 86.5733 187.053 80.9311 188.427 74.4778C190.118 66.7197 188.603 59.9137 185.89 52.6846C184.129 47.9944 179.901 41.8938 174.122 44.4328C169.119 46.6192 166.864 53.5309 165.631 58.3621C163.94 65.0623 164.222 72.2914 166.653 78.78C168.908 84.8101 173.911 89.2887 174.58 96.0946C175.391 104.064 175.708 112.175 174.439 120.145C173.946 123.389 173.101 126.739 170.987 129.243C166.16 134.92 154.709 134.779 150.657 128.361C148.296 124.623 147.979 119.968 148.12 115.56C148.367 108.261 149.283 100.996 150.763 93.873C152.207 86.9612 154.955 80.3669 155.59 73.3493C156.012 68.4829 155.625 63.687 155.378 58.8558C155.167 54.5888 154.497 50.6745 152.383 46.9013C151.467 56.9515 153.053 66.7197 151.15 76.8404C151.08 77.2283 150.974 77.6515 150.692 77.9336C150.481 78.1452 150.129 78.1452 149.882 78.0042C148.578 73.6314 149.635 67.6013 149.494 62.9817C149.353 57.7979 149.001 52.5435 147.627 47.5008C143.787 57.1631 149.036 68.6945 145.196 78.3568C141.849 78.3568 143.505 68.1302 143.681 66.2965C144.28 60.0195 143.963 53.6367 142.694 47.4655C139.805 52.4377 140.017 57.4805 140.052 62.9817C140.087 68.0597 140.651 73.1377 140.968 78.1805C139.065 77.8278 138.325 75.5357 138.008 73.5962C137.233 68.7297 136.916 63.7927 137.022 58.891C137.092 56.5284 137.233 54.1657 137.515 51.803C137.656 50.604 137.128 47.4302 137.48 46.5486C132.406 58.9263 131.843 72.503 137.022 84.8454C139.946 91.8629 143.329 98.5279 143.434 106.286C143.54 115.031 142.589 123.777 142.589 132.522C115.635 122.79 102.176 92.1098 108.448 64.8507C117.08 27.365 160.98 3.7028 195.826 22.8159C204.388 27.506 211.751 34.4883 216.508 43.0222C225.598 59.42 224.153 80.0495 217.142 97.4347C211.293 111.999 200.582 125.893 185.397 129.772C196.354 120.462 212.562 120.921 226.584 124.059C238.176 126.669 249.592 130.83 261.571 131.429C273.374 132.029 283.627 125.999 293.668 120.427C305.894 113.656 318.226 106.356 327.316 95.742C336.406 85.1275 341.903 70.4224 338.344 56.9163" stroke="#292929" stroke-miterlimit="10" stroke-linecap="round" stroke-linejoin="round"/>
</g>
<defs>
<clipPath id="clip0">
<rect width="340" height="207" fill="white"/>
</clipPath>
</defs>
</svg>

<svg width="340" height="207" fill="none" xmlns="http://www.w3.org/2000/svg"><g clip-path="url(#clip0)"><path d="M4.933 206.506c-3.1-2.257-4.475-6.312-4.299-10.12.176-3.809 1.727-7.441 3.594-10.791 7.364-13.436 19.237-23.698 29.279-35.3 10.041-11.601 18.709-25.989 17.264-41.258-.282-3.104-1.515-6.736-4.545-7.476-2.184-.565-4.51.74-5.778 2.574-1.269 1.834-1.727 4.126-1.973 6.383-.846 7.158-.177 14.74 3.417 21.017 3.559 6.277 10.43 10.967 17.617 10.579 4.968-.247 9.97-2.786 13.917-5.677 4.369-3.209 8.738-5.854 13.847-7.97 10.605-4.373 22.161-6.418 33.612-5.889-19.871-16.68-28.962-45.209-22.408-70.317 6.553-25.108 28.362-45.56 53.836-50.427 25.474-4.867 53.308 6.1 68.599 27.047 9.231 12.625 13.987 28.458 13.494 44.08-.916 28.176-19.906 54.977-46.19 65.133-27.905 10.791-63.42 5.043-82.728-18.901-17.546-21.758-17.757-51.91-4.263-75.712 8.808-15.517 22.972-28.141 39.849-34.242 27.693-9.98 60.53-1.163 80.014 20.7 4.087 4.585 7.61 9.698 10.323 15.234 6.166 12.378 8.421 26.59 6.836 40.272-.811 6.947-2.572 13.753-5.356 20.171-2.818 6.559-7.962 11.708-12.86 16.891-17.194 18.197-39.285 29.763-65.181 26.695-26.178-3.103-42.632-20.135-51.088-44.327-4.017-11.531-6.307-23.803-5.497-36.004.81-12.202 4.827-24.332 12.438-33.889 13.811-17.385 36.008-25.214 57.747-23.697 30.653 2.15 55.598 22.287 65.569 51.203 5.32 15.41 7.504 36.78.176 51.909-3.664 7.511-8.738 14.528-15.714 19.183-6.941 4.62-15.926 6.63-23.888 4.056-12.332-3.985-15.256-16.433-15.397-28-.071-5.36-.458-12.342 1.938-17.209 2.889-5.854 5.919-11.496 7.293-17.95 1.691-7.757.176-14.563-2.537-21.792-1.761-4.69-5.989-10.791-11.768-8.252-5.003 2.186-7.258 9.098-8.491 13.93-1.691 6.7-1.409 13.928 1.022 20.417 2.255 6.03 7.258 10.509 7.927 17.315.811 7.969 1.128 16.08-.141 24.05-.493 3.244-1.338 6.594-3.452 9.098-4.827 5.677-16.278 5.536-20.33-.882-2.361-3.738-2.678-8.393-2.537-12.801.247-7.299 1.163-14.564 2.643-21.687 1.444-6.912 4.192-13.506 4.827-20.524.422-4.866.035-9.662-.212-14.493-.211-4.267-.881-8.181-2.995-11.955-.916 10.05.67 19.819-1.233 29.94-.07.387-.176.81-.458 1.093-.211.211-.563.211-.81.07-1.304-4.373-.247-10.403-.388-15.022-.141-5.184-.493-10.438-1.867-15.481-3.84 9.662 1.409 21.194-2.431 30.856-3.347 0-1.691-10.227-1.515-12.06.599-6.277.282-12.66-.987-18.831-2.889 4.972-2.677 10.014-2.642 15.516.035 5.078.599 10.156.916 15.198-1.903-.352-2.643-2.644-2.96-4.584a82.315 82.315 0 01-.986-14.705c.07-2.363.211-4.725.493-7.088.141-1.199-.387-4.373-.035-5.254-5.074 12.377-5.637 25.954-.458 38.296 2.924 7.018 6.307 13.683 6.412 21.441.106 8.745-.845 17.491-.845 26.236-26.954-9.732-40.413-40.412-34.141-67.671 8.632-37.486 52.532-61.148 87.378-42.035 8.562 4.69 15.925 11.672 20.682 20.206 9.09 16.398 7.645 37.027.634 54.413-5.849 14.564-16.56 28.458-31.745 32.337 10.957-9.31 27.165-8.851 41.187-5.713 11.592 2.61 23.008 6.771 34.987 7.37 11.803.6 22.056-5.43 32.097-11.002 12.226-6.771 24.558-14.071 33.648-24.685 9.09-10.615 14.587-25.32 11.028-38.826" stroke="#292929" stroke-miterlimit="10" stroke-linecap="round" stroke-linejoin="round"/></g><defs><clipPath id="clip0"><path fill="#fff" d="M0 0h340v207H0z"/></clipPath></defs></svg>
